X: 1
T: Colonel Fraser's
M: 4/4
L: 1/8
R: reel
K: Gmaj
A|BGAF DG~G2|ADFA d2cA|BGAF GBdg|fdcA dBcA|
BGAF DG~G2|ADFA d2cA|BGAF GBdg|fdcA G3:|
|:B|dggf g2ag|fdde fdcA|dgga bgag|fdcA G2 (3Bcd|
~g3e d2dc|BG~G2 ADFA|GBAc (3Bcd ge|fdcA G3:|
|:A|Bd~d2 BGdB|AGFG ABcA|Bd~d2 BGdB|cAFG AGGA|
Bd~d2 BGdB|AGFG ABcA|GBAc (3Bcd ge|fdcA G3:|
|:A|~B2GB ~B2GB|~A2FA DAFA|~B2GB ~B2GB|cAFG AGGA|
~B2GB dBGB|~A2FA DAFA|GBAc (3Bcd ge|fdcA G3:|
|:A|(3Bcd gd (3Bcd gd|Adfd Adfd|(3Bcd gd (3Bcd gd|cAFG AGGA|
(3Bcd gd (3Bcd gd|Adfd AdFA|GBAc (3Bcd ge|fdcA G3:|
